gfx/flourish.svg

<svg fill="none" height="126" viewBox="0 0 678 126" width="678" xmlns="http://www.w3.org/2000/svg"><g fill="#fff"><path clip-rule="evenodd" d="m100.579 26.3604c1.766-.0126 3.166.4504 4.199 1.3888 1.034.9385 1.554 2.3957 1.561 4.3717 0 16.8547-10.3956 30.8507-25.9276 35.0369-.5772.1556-1.3923.3335-2.4453.5335l-.2473.0465c-.9973.1862-1.91.6837-2.607 1.4209-1.0764 1.1383-1.789 1.9573-2.1378 2.4567-5.0778 7.2695-6.7113 12.2397-8.0386 17.1704l-.1363.5101c-.0452.17-.0901.34-.135.5103l-.2014.7671-.1288.4908c-.3016 1.1471-.6126 2.3107-.9715 3.5184-.5914 1.9368-1.9761 4.7384-4.097 4.7384-2.1208 0-2.7343-1.7629-2.7343-3.8834 0-6.3708 3.0482-17.4985 9.1426-26.8677 4.8522-7.4594 12.5464-16.3938 22.1867-23.931.8001-.6256.5465-1.2683-.3529-.7063-9.9085 6.1928-18.2569 13.419-23.1583 20.4907l-.1945.2829-.0557.0824c-.7576 1.1194-1.4609 2.233-2.1132 3.3378-4.0785-5.8904-8.2233-10.0691-16.2296-15.9503-1.2409-.9115-2.1697-.7187-1.3893 0 7.938 7.3108 15.3514 20.1458 15.2934 20.2645-17.6587-.0848-32.0554-13.9707-32.9566-31.4252-.0037-.0715-.0241-.3374-.0268-.723l.0003-.2024c.012-1.2348.2227-3.3811 1.482-4.5833 1.7116-1.6338 5.4745-1.4228 5.8127-1.4018 14.8375.9167 27.0345 11.5896 30.2543 25.6821 1.5502-18.7183 17.2339-33.4265 36.3528-33.4265z" fill-rule="evenodd"/><path d="m151.978 41.5562-8.319 6.5313c-.412-1.3063-.882-2.2917-1.409-2.9563-.504-.6646-1.111-.9969-1.822-.9969-1.031 0-1.799.424-2.303 1.2719-.481.8479-.722 2.1656-.722 3.9531v3.7125h6.394v8.4563h-6.394v19.3531h6.738v8.3188h-23.513v-8.3188h5.294v-19.3531h-4.847v-8.4563h4.847v-3.7125c0-3.9416 1.18-7.0698 3.54-9.3843 2.384-2.3375 5.844-3.5063 10.382-3.5063 5.683 0 9.728 1.6958 12.134 5.0875zm21.053 39.325v8.3188h-22.31v-8.3188h5.638v-35.2h-5.638v-8.2844h17.188v43.4844zm37.111-9.7625c0 3.5979-.848 6.8406-2.544 9.7281s-3.987 5.1448-6.875 6.7719c-2.887 1.6271-6.061 2.4406-9.522 2.4406-3.666 0-6.943-.8135-9.831-2.4406-2.887-1.6271-5.145-3.8844-6.772-6.7719-1.604-2.8875-2.406-6.1302-2.406-9.7281 0-3.575.825-6.7948 2.475-9.6594 1.673-2.8646 3.965-5.1104 6.875-6.7375 2.91-1.65 6.13-2.475 9.659-2.475 3.598 0 6.841.825 9.728 2.475 2.888 1.6271 5.145 3.8729 6.772 6.7375s2.441 6.0844 2.441 9.6594zm-19.009 9.9688c2.245 0 3.999-.8709 5.259-2.6125 1.283-1.7646 1.925-4.2855 1.925-7.5625 0-3.0709-.642-5.4657-1.925-7.1844-1.26-1.7417-3.036-2.6125-5.328-2.6125-2.315 0-4.068.8594-5.26 2.5781-1.191 1.6958-1.787 4.2625-1.787 7.7 0 2.9104.642 5.2594 1.925 7.0469 1.306 1.7646 3.036 2.6469 5.191 2.6469zm37.705-.825c1.971 0 4.102-.8709 6.394-2.6125v-16.1219h-5.535v-8.4563h17.016v27.8094h5.912v8.3188h-17.393v-3.025c-3.598 2.3833-7.093 3.575-10.485 3.575-3.506 0-6.233-.974-8.181-2.9219s-2.922-4.6292-2.922-8.0438v-17.2562h-5.431v-8.4563h16.844v22.7563c0 1.6958.263 2.8646.79 3.5062.55.6188 1.547.9282 2.991.9282zm56.609-27.6032v10.8282c-3.163.2062-5.684.7104-7.563 1.5125-1.856.7791-3.3 2.1312-4.331 4.0562-1.008 1.925-1.513 4.675-1.513 8.25v3.575h7.185v8.3188h-25.335v-8.3188h6.635v-19.3531h-6.291v-8.4563h16.844v9.1782c.848-2.773 2.418-5.0761 4.709-6.9094 2.292-1.8334 5.134-2.75 8.525-2.75.504 0 .883.0229 1.135.0687zm19.364-9.8656c0 1.8333-.63 3.3573-1.891 4.5719-1.237 1.1916-2.716 1.7875-4.434 1.7875-1.742 0-3.243-.6188-4.503-1.8563-1.238-1.2604-1.857-2.7614-1.857-4.5031 0-1.7187.619-3.1969 1.857-4.4344 1.26-1.2604 2.761-1.8906 4.503-1.8906 1.718 0 3.197.6302 4.434 1.8906 1.261 1.2375 1.891 2.7157 1.891 4.4344zm4.64 38.0875v8.3188h-22.309v-8.3188h5.5v-19.3531h-5.5v-8.4563h16.947v27.8094zm22.889-26.5375v-1.2719h8.215v10.5875h-8.215c-.711-2.5437-3.346-3.8156-7.907-3.8156-3.277 0-4.915.9167-4.915 2.75 0 .8021.435 1.3979 1.306 1.7875s2.143.7104 3.816.9625c4.698.5958 8.399 1.4552 11.103 2.5781 2.704 1.1 4.595 2.475 5.672 4.125 1.077 1.6271 1.615 3.6094 1.615 5.9469 0 3.8042-1.306 6.7719-3.919 8.9031-2.589 2.1084-6.118 3.1625-10.587 3.1625-4.354 0-7.31-.8708-8.869-2.6125v1.7532h-8.387v-12.4438h8.387c.229 1.7188 1.054 3.0708 2.475 4.0563 1.444.9854 3.22 1.4781 5.328 1.4781 2.063 0 3.587-.2292 4.572-.6875.986-.4813 1.478-1.3063 1.478-2.475 0-.8021-.206-1.4209-.618-1.8563-.413-.4583-1.215-.8593-2.407-1.2031-1.168-.3437-2.967-.7333-5.397-1.1687-5.408-.848-9.304-2.2115-11.687-4.0907-2.36-1.9021-3.541-4.4573-3.541-7.6656 0-3.2771 1.226-5.8552 3.678-7.7344 2.475-1.8791 5.73-2.8187 9.763-2.8187 3.254 0 6.268.5844 9.041 1.7531zm37.445-2.0969c3.667 0 6.417 1.1115 8.25 3.3344 1.856 2.2229 2.784 5.4542 2.784 9.6938v15.6062h5.363v8.3188h-16.913v-23.375c0-1.4896-.286-2.5553-.859-3.1969-.55-.6417-1.478-.9625-2.784-.9625-1.788 0-3.805.7333-6.05 2.2v17.0156h5.053v8.3188h-22.378v-8.3188h5.843v-35.2h-5.843v-8.2844h17.325v18.6313c3.712-2.5209 7.115-3.7813 10.209-3.7813zm57.346 5.2594v-4.4344h17.428v8.4563h-5.981v26.9844c0 5.6604-1.547 9.9802-4.641 12.9595-3.094 2.979-7.86 4.469-14.3 4.469-7.127 0-12.444-1.307-15.95-3.919l5.603-7.597c2.956 1.8104 5.867 2.7156 8.731 2.7156 2.407 0 4.263-.3667 5.569-1.1 1.329-.7104 2.246-1.8219 2.75-3.3344.527-1.4896.791-3.5062.791-6.05v-1.9594c-3.804 3.3688-7.494 5.0532-11.069 5.0532-2.956 0-5.58-.7792-7.872-2.3375-2.269-1.5813-4.022-3.7813-5.259-6.6-1.238-2.8188-1.857-6.05-1.857-9.6938 0-3.575.654-6.7719 1.96-9.5906 1.329-2.8188 3.197-5.0073 5.603-6.5656 2.406-1.5813 5.087-2.3719 8.044-2.3719 4.285 0 7.769 1.6385 10.45 4.9156zm-7.185 22.8938c2.109 0 3.839-.8021 5.191-2.4063 1.375-1.6271 2.063-3.8729 2.063-6.7375 0-2.9104-.654-5.2021-1.96-6.875-1.283-1.6729-3.048-2.5094-5.294-2.5094-2.177 0-3.895.8594-5.156 2.5782-1.26 1.7187-1.891 3.9645-1.891 6.7375 0 2.6583.631 4.8583 1.891 6.6 1.261 1.7416 2.979 2.6125 5.156 2.6125zm59.29-12.8907v13.3719h5.844v8.3188h-17.325v-2.8188c-3.277 2.2458-6.554 3.3688-9.831 3.3688-3.965 0-7.139-1.0198-9.522-3.0594s-3.575-4.7896-3.575-8.25c0-3.6667 1.329-6.6 3.987-8.8 2.682-2.2229 6.234-3.3344 10.657-3.3344 1.535 0 2.899.1719 4.09.5156 1.215.3209 2.613.8823 4.194 1.6844v-2.8875c0-1.8333-.573-3.3-1.719-4.4-1.145-1.1-2.864-1.65-5.156-1.65-2.498 0-4.709.9625-6.634 2.8875l-9.282-1.6844c2.819-5.6833 8.64-8.525 17.463-8.525 6.05 0 10.358 1.249 12.925 3.7469 2.59 2.475 3.884 6.3135 3.884 11.5156zm-18.734 15.0563c2.062 0 4.48-1.2375 7.253-3.7125v-3.2313c-2.475-1.6041-4.744-2.4062-6.806-2.4062-1.65 0-2.911.3896-3.781 1.1687-.871.7792-1.307 1.8907-1.307 3.3344 0 3.2313 1.547 4.8469 4.641 4.8469zm57.399-29.9063v10.8282c-3.162.2062-5.683.7104-7.562 1.5125-1.856.7791-3.3 2.1312-4.331 4.0562-1.009 1.925-1.513 4.675-1.513 8.25v3.575h7.184v8.3188h-25.334v-8.3188h6.634v-19.3531h-6.29v-8.4563h16.844v9.1782c.848-2.773 2.417-5.0761 4.709-6.9094 2.292-1.8334 5.133-2.75 8.525-2.75.504 0 .882.0229 1.134.0687zm42.955 28.2219v8.3188h-17.359v-4.2969c-3.3 3.2312-6.806 4.8469-10.519 4.8469-3.048 0-5.74-.8136-8.078-2.4407-2.337-1.65-4.171-3.9073-5.5-6.7718-1.306-2.8646-1.959-6.05-1.959-9.5563 0-3.6208.653-6.8521 1.959-9.6937 1.329-2.8417 3.197-5.0532 5.603-6.6344 2.406-1.6042 5.088-2.4063 8.044-2.4063 4.24 0 7.723 1.6386 10.45 4.9157v-11.4813h-5.706v-8.2844h17.153v43.4844zm-24.475-.2062c2.246 0 3.999-.8823 5.26-2.6469 1.283-1.7875 1.925-4.0906 1.925-6.9094 0-2.8187-.653-5.1219-1.96-6.9094-1.283-1.7875-3.048-2.6812-5.293-2.6812-2.177 0-3.908.8937-5.191 2.6812s-1.925 4.0677-1.925 6.8407c0 2.7958.642 5.0989 1.925 6.9093s3.036 2.7157 5.259 2.7157zm61.536-7.1157h-26.95c.275 2.7729 1.226 4.9729 2.853 6.6 1.65 1.6042 3.77 2.4063 6.359 2.4063 2.865 0 5.661-1.4209 8.388-4.2625l8.937 2.8875c-1.971 2.9562-4.411 5.1791-7.322 6.6687-2.91 1.4667-6.359 2.2-10.347 2.2-3.987 0-7.516-.7448-10.587-2.2343-3.048-1.5125-5.42-3.6438-7.116-6.3938-1.673-2.75-2.509-5.9812-2.509-9.6937 0-3.6667.871-6.9896 2.612-9.9688 1.765-2.9792 4.137-5.3052 7.116-6.9781 3.002-1.6959 6.256-2.5438 9.763-2.5438 3.804 0 7.115.8823 9.934 2.6469 2.819 1.7417 4.984 4.2281 6.497 7.4594 1.535 3.2083 2.326 6.9437 2.372 11.2062zm-19.353-13.6468c-2.063 0-3.724.5958-4.985 1.7875-1.237 1.1916-2.016 3.0135-2.337 5.4656h15.056c-.321-2.1542-1.203-3.8959-2.647-5.225-1.421-1.3521-3.117-2.0281-5.087-2.0281zm59.805 6.2562v14.7125h5.431v8.3188h-16.981v-22.1032c0-1.6958-.263-2.9218-.79-3.6781-.505-.7792-1.364-1.1687-2.579-1.1687-2.2 0-4.411.7906-6.634 2.3718v16.2594h5.638v8.3188h-22.585v-8.3188h5.5v-19.3531h-5.5v-8.4563h16.947v3.4032c3.438-2.5896 6.967-3.8844 10.588-3.8844 3.598 0 6.325 1.1458 8.181 3.4375 1.856 2.2687 2.784 5.6489 2.784 10.1406z"/></g></svg>

<svg width="678" height="126" viewBox="0 0 678 126" fill="none" xmlns="http://www.w3.org/2000/svg">
<path fill-rule="evenodd" clip-rule="evenodd" d="M100.579 26.3604C102.345 26.3478 103.745 26.8108 104.778 27.7492C105.812 28.6877 106.332 30.1449 106.339 32.1209C106.339 48.9756 95.9434 62.9716 80.4114 67.1578C79.8342 67.3134 79.0191 67.4913 77.9661 67.6913L77.7188 67.7378C76.7215 67.924 75.8088 68.4215 75.1118 69.1587C74.0354 70.297 73.3228 71.116 72.974 71.6154C67.8962 78.8849 66.2627 83.8551 64.9354 88.7858L64.7991 89.2959C64.7539 89.4659 64.709 89.6359 64.6641 89.8062L64.4627 90.5733L64.3339 91.0641C64.0323 92.2112 63.7213 93.3748 63.3624 94.5825C62.771 96.5193 61.3863 99.3209 59.2654 99.3209C57.1446 99.3209 56.5311 97.558 56.5311 95.4375C56.5311 89.0667 59.5793 77.939 65.6737 68.5698C70.5259 61.1104 78.2201 52.176 87.8604 44.6388C88.6605 44.0132 88.4069 43.3705 87.5075 43.9325C77.599 50.1253 69.2506 57.3515 64.3492 64.4232L64.1547 64.7061L64.099 64.7885C63.3414 65.9079 62.6381 67.0215 61.9858 68.1263C57.9073 62.2359 53.7625 58.0572 45.7562 52.176C44.5153 51.2645 43.5865 51.4573 44.3669 52.176C52.3049 59.4868 59.7183 72.3218 59.6603 72.4405C42.0016 72.3557 27.6049 58.4698 26.7037 41.0153C26.7 40.9438 26.6796 40.6779 26.6769 40.2923L26.6772 40.0899C26.6892 38.8551 26.8999 36.7088 28.1592 35.5066C29.8708 33.8728 33.6337 34.0838 33.9719 34.1048C48.8094 35.0215 61.0064 45.6944 64.2262 59.7869C65.7764 41.0686 81.4601 26.3604 100.579 26.3604Z" fill="white" style="fill:white;fill-opacity:1;"/>
<path d="M151.978 41.5562L143.659 48.0875C143.247 46.7812 142.777 45.7958 142.25 45.1312C141.746 44.4666 141.139 44.1343 140.428 44.1343C139.397 44.1343 138.629 44.5583 138.125 45.4062C137.644 46.2541 137.403 47.5718 137.403 49.3593V53.0718H143.797V61.5281H137.403V80.8812H144.141V89.2H120.628V80.8812H125.922V61.5281H121.075V53.0718H125.922V49.3593C125.922 45.4177 127.102 42.2895 129.462 39.975C131.846 37.6375 135.306 36.4687 139.844 36.4687C145.527 36.4687 149.572 38.1645 151.978 41.5562ZM173.031 80.8812V89.2H150.721V80.8812H156.359V45.6812H150.721V37.3968H167.909V80.8812H173.031ZM210.142 71.1187C210.142 74.7166 209.294 77.9593 207.598 80.8468C205.902 83.7343 203.611 85.9916 200.723 87.6187C197.836 89.2458 194.662 90.0593 191.201 90.0593C187.535 90.0593 184.258 89.2458 181.37 87.6187C178.483 85.9916 176.225 83.7343 174.598 80.8468C172.994 77.9593 172.192 74.7166 172.192 71.1187C172.192 67.5437 173.017 64.3239 174.667 61.4593C176.34 58.5947 178.632 56.3489 181.542 54.7218C184.452 53.0718 187.672 52.2468 191.201 52.2468C194.799 52.2468 198.042 53.0718 200.929 54.7218C203.817 56.3489 206.074 58.5947 207.701 61.4593C209.328 64.3239 210.142 67.5437 210.142 71.1187ZM191.133 81.0875C193.378 81.0875 195.132 80.2166 196.392 78.475C197.675 76.7104 198.317 74.1895 198.317 70.9125C198.317 67.8416 197.675 65.4468 196.392 63.7281C195.132 61.9864 193.356 61.1156 191.064 61.1156C188.749 61.1156 186.996 61.975 185.804 63.6937C184.613 65.3895 184.017 67.9562 184.017 71.3937C184.017 74.3041 184.659 76.6531 185.942 78.4406C187.248 80.2052 188.978 81.0875 191.133 81.0875ZM228.838 80.2625C230.809 80.2625 232.94 79.3916 235.232 77.65V61.5281H229.697V53.0718H246.713V80.8812H252.625V89.2H235.232V86.175C231.634 88.5583 228.139 89.75 224.747 89.75C221.241 89.75 218.514 88.776 216.566 86.8281C214.618 84.8802 213.644 82.1989 213.644 78.7843V61.5281H208.213V53.0718H225.057V75.8281C225.057 77.5239 225.32 78.6927 225.847 79.3343C226.397 79.9531 227.394 80.2625 228.838 80.2625ZM285.447 52.6593V63.4875C282.284 63.6937 279.763 64.1979 277.884 65C276.028 65.7791 274.584 67.1312 273.553 69.0562C272.545 70.9812 272.04 73.7312 272.04 77.3062V80.8812H279.225V89.2H253.89V80.8812H260.525V61.5281H254.234V53.0718H271.078V62.25C271.926 59.477 273.496 57.1739 275.787 55.3406C278.079 53.5072 280.921 52.5906 284.312 52.5906C284.816 52.5906 285.195 52.6135 285.447 52.6593ZM304.811 42.7937C304.811 44.627 304.181 46.151 302.92 47.3656C301.683 48.5572 300.204 49.1531 298.486 49.1531C296.744 49.1531 295.243 48.5343 293.983 47.2968C292.745 46.0364 292.126 44.5354 292.126 42.7937C292.126 41.075 292.745 39.5968 293.983 38.3593C295.243 37.0989 296.744 36.4687 298.486 36.4687C300.204 36.4687 301.683 37.0989 302.92 38.3593C304.181 39.5968 304.811 41.075 304.811 42.7937ZM309.451 80.8812V89.2H287.142V80.8812H292.642V61.5281H287.142V53.0718H304.089V80.8812H309.451ZM332.34 54.3437V53.0718H340.555V63.6593H332.34C331.629 61.1156 328.994 59.8437 324.433 59.8437C321.156 59.8437 319.518 60.7604 319.518 62.5937C319.518 63.3958 319.953 63.9916 320.824 64.3812C321.695 64.7708 322.967 65.0916 324.64 65.3437C329.338 65.9395 333.039 66.7989 335.743 67.9218C338.447 69.0218 340.338 70.3968 341.415 72.0468C342.492 73.6739 343.03 75.6562 343.03 77.9937C343.03 81.7979 341.724 84.7656 339.111 86.8968C336.522 89.0052 332.993 90.0593 328.524 90.0593C324.17 90.0593 321.214 89.1885 319.655 87.4468V89.2H311.268V76.7562H319.655C319.884 78.475 320.709 79.827 322.13 80.8125C323.574 81.7979 325.35 82.2906 327.458 82.2906C329.521 82.2906 331.045 82.0614 332.03 81.6031C333.016 81.1218 333.508 80.2968 333.508 79.1281C333.508 78.326 333.302 77.7072 332.89 77.2718C332.477 76.8135 331.675 76.4125 330.483 76.0687C329.315 75.725 327.516 75.3354 325.086 74.9C319.678 74.052 315.782 72.6885 313.399 70.8093C311.039 68.9072 309.858 66.352 309.858 63.1437C309.858 59.8666 311.084 57.2885 313.536 55.4093C316.011 53.5302 319.266 52.5906 323.299 52.5906C326.553 52.5906 329.567 53.175 332.34 54.3437ZM369.785 52.2468C373.452 52.2468 376.202 53.3583 378.035 55.5812C379.891 57.8041 380.819 61.0354 380.819 65.275V80.8812H386.182V89.2H369.269V65.825C369.269 64.3354 368.983 63.2697 368.41 62.6281C367.86 61.9864 366.932 61.6656 365.626 61.6656C363.838 61.6656 361.821 62.3989 359.576 63.8656V80.8812H364.629V89.2H342.251V80.8812H348.094V45.6812H342.251V37.3968H359.576V56.0281C363.288 53.5072 366.691 52.2468 369.785 52.2468ZM427.131 57.5062V53.0718H444.559V61.5281H438.578V88.5125C438.578 94.1729 437.031 98.4927 433.937 101.472C430.843 104.451 426.077 105.941 419.637 105.941C412.51 105.941 407.193 104.634 403.687 102.022L409.29 94.425C412.246 96.2354 415.157 97.1406 418.021 97.1406C420.428 97.1406 422.284 96.7739 423.59 96.0406C424.919 95.3302 425.836 94.2187 426.34 92.7062C426.867 91.2166 427.131 89.2 427.131 86.6562V84.6968C423.327 88.0656 419.637 89.75 416.062 89.75C413.106 89.75 410.482 88.9708 408.19 87.4125C405.921 85.8312 404.168 83.6312 402.931 80.8125C401.693 77.9937 401.074 74.7625 401.074 71.1187C401.074 67.5437 401.728 64.3468 403.034 61.5281C404.363 58.7093 406.231 56.5208 408.637 54.9625C411.043 53.3812 413.724 52.5906 416.681 52.5906C420.966 52.5906 424.45 54.2291 427.131 57.5062ZM419.946 80.4C422.055 80.4 423.785 79.5979 425.137 77.9937C426.512 76.3666 427.2 74.1208 427.2 71.2562C427.2 68.3458 426.546 66.0541 425.24 64.3812C423.957 62.7083 422.192 61.8718 419.946 61.8718C417.769 61.8718 416.051 62.7312 414.79 64.45C413.53 66.1687 412.899 68.4145 412.899 71.1875C412.899 73.8458 413.53 76.0458 414.79 77.7875C416.051 79.5291 417.769 80.4 419.946 80.4ZM479.236 67.5093V80.8812H485.08V89.2H467.755V86.3812C464.478 88.627 461.201 89.75 457.924 89.75C453.959 89.75 450.785 88.7302 448.402 86.6906C446.019 84.651 444.827 81.901 444.827 78.4406C444.827 74.7739 446.156 71.8406 448.814 69.6406C451.496 67.4177 455.048 66.3062 459.471 66.3062C461.006 66.3062 462.37 66.4781 463.561 66.8218C464.776 67.1427 466.174 67.7041 467.755 68.5062V65.6187C467.755 63.7854 467.182 62.3187 466.036 61.2187C464.891 60.1187 463.172 59.5687 460.88 59.5687C458.382 59.5687 456.171 60.5312 454.246 62.4562L444.964 60.7718C447.783 55.0885 453.604 52.2468 462.427 52.2468C468.477 52.2468 472.785 53.4958 475.352 55.9937C477.942 58.4687 479.236 62.3072 479.236 67.5093ZM460.502 82.5656C462.564 82.5656 464.982 81.3281 467.755 78.8531V75.6218C465.28 74.0177 463.011 73.2156 460.949 73.2156C459.299 73.2156 458.038 73.6052 457.168 74.3843C456.297 75.1635 455.861 76.275 455.861 77.7187C455.861 80.95 457.408 82.5656 460.502 82.5656ZM517.901 52.6593V63.4875C514.739 63.6937 512.218 64.1979 510.339 65C508.483 65.7791 507.039 67.1312 506.008 69.0562C504.999 70.9812 504.495 73.7312 504.495 77.3062V80.8812H511.679V89.2H486.345V80.8812H492.979V61.5281H486.689V53.0718H503.533V62.25C504.381 59.477 505.95 57.1739 508.242 55.3406C510.534 53.5072 513.375 52.5906 516.767 52.5906C517.271 52.5906 517.649 52.6135 517.901 52.6593ZM560.856 80.8812V89.2H543.497V84.9031C540.197 88.1343 536.691 89.75 532.978 89.75C529.93 89.75 527.238 88.9364 524.9 87.3093C522.563 85.6593 520.729 83.402 519.4 80.5375C518.094 77.6729 517.441 74.4875 517.441 70.9812C517.441 67.3604 518.094 64.1291 519.4 61.2875C520.729 58.4458 522.597 56.2343 525.003 54.6531C527.409 53.0489 530.091 52.2468 533.047 52.2468C537.287 52.2468 540.77 53.8854 543.497 57.1625V45.6812H537.791V37.3968H554.944V80.8812H560.856ZM536.381 80.675C538.627 80.675 540.38 79.7927 541.641 78.0281C542.924 76.2406 543.566 73.9375 543.566 71.1187C543.566 68.3 542.913 65.9968 541.606 64.2093C540.323 62.4218 538.558 61.5281 536.313 61.5281C534.136 61.5281 532.405 62.4218 531.122 64.2093C529.839 65.9968 529.197 68.277 529.197 71.05C529.197 73.8458 529.839 76.1489 531.122 77.9593C532.405 79.7697 534.158 80.675 536.381 80.675ZM597.917 73.5593H570.967C571.242 76.3322 572.193 78.5322 573.82 80.1593C575.47 81.7635 577.59 82.5656 580.179 82.5656C583.044 82.5656 585.84 81.1447 588.567 78.3031L597.504 81.1906C595.533 84.1468 593.093 86.3697 590.182 87.8593C587.272 89.326 583.823 90.0593 579.835 90.0593C575.848 90.0593 572.319 89.3145 569.248 87.825C566.2 86.3125 563.828 84.1812 562.132 81.4312C560.459 78.6812 559.623 75.45 559.623 71.7375C559.623 68.0708 560.494 64.7479 562.235 61.7687C564 58.7895 566.372 56.4635 569.351 54.7906C572.353 53.0947 575.607 52.2468 579.114 52.2468C582.918 52.2468 586.229 53.1291 589.048 54.8937C591.867 56.6354 594.032 59.1218 595.545 62.3531C597.08 65.5614 597.871 69.2968 597.917 73.5593ZM578.564 59.9125C576.501 59.9125 574.84 60.5083 573.579 61.7C572.342 62.8916 571.563 64.7135 571.242 67.1656H586.298C585.977 65.0114 585.095 63.2697 583.651 61.9406C582.23 60.5885 580.534 59.9125 578.564 59.9125ZM638.369 66.1687V80.8812H643.8V89.2H626.819V67.0968C626.819 65.401 626.556 64.175 626.029 63.4187C625.524 62.6395 624.665 62.25 623.45 62.25C621.25 62.25 619.039 63.0406 616.816 64.6218V80.8812H622.454V89.2H599.869V80.8812H605.369V61.5281H599.869V53.0718H616.816V56.475C620.254 53.8854 623.783 52.5906 627.404 52.5906C631.002 52.5906 633.729 53.7364 635.585 56.0281C637.441 58.2968 638.369 61.677 638.369 66.1687Z" fill="white" style="fill:white;fill-opacity:1;"/>
</svg>
